X:1
T:Irish (Kilt-Wearing) Washerwoman
C:PM N. Gillies
D:AA,
M:6/8
Q:120
W:
K:A
z3:|e|{g}c {d}A {e}A {g}G {d}A {e}A| {g}c {d}A {e}A {g}edc| {g}d B {G}B {g}G {d}B {G}B| {g}d B {G}B{g}fed|
{g}c{d}A{e}A{g}G{d}A{e}A| {g}c{d}A{e}A{g}edc| {g}dcd{g}Bed|
{g}c{d}A{e}A{gAGAG}A2:|
:|d|"A"{g}ce{A}e"A"{g}ec{d}A| "A"{g}c{d}A{e}A "A"{g}edc|
"D"{g}df{e}f"D"{g}fB{G}B| "D"{g}dB{G}B"D"{g}fed|
"A"{g}ce{A}e{g}"A"ec{d}A| "A"{g}c{d}A "A"{e}A{g}efc|
"D"{g}dcd"E"{g}Bed| "A"{g}c{d}A {e}A "A" {gAGAG}A2:|
:|a|"A"{a}c{d}A{e}A{g}B{d}A{e}A|
{g}G{d}A{e}A{g}C{d}A{e}A| {g}dB{G}B{g}fB{G}B| aB{G}B{g}fga|
c{d}A{e}A{g}B{d}A{e}A| {g}G{d}A{e}A{g}c{d}A{e}A|
{g}dcd{g}Bed| {g}c{d}A{e}A{gABAB}A2:|
|:d|{g}ce{A}e{g}ec{G}c| ac{G}c{g}ec{G}c|
{g}df{e}f{g}fd{G}d| ad{G}d{g}fd{G}d|
{g}ce{A}e{g}ec{G}c| ac{G}c{g}ec{G}c| {g}dcd{g}Bed| {g}c{d}A{e}A{gABAB}A2:|
